X:1
T:Title
%%score { 1 | ( 2 3 ) }
L:1/8
Q:1/4=84
M:6/8
K:Ab
V:1 treble nm="Grand Piano"
V:2 bass 
V:3 bass 
V:1
 [Ec][Ec][Ec] [Ec]>[=D_c][E=c] | [Fd][Ec][DB] [CA] [CE]2 | [CE][EA]c e>=de | c2 [EA] .[EB]3 | %4
w: Chas.~H.~Gabriel * * * * *||||
 [Ec][Ec][Ec] [Ec]>[=D_c][E=c] | [Fd][Ec][DB] [CA] [CE]2 | FFG AGA | c2 B [CEA]3 | %8
w: ||||
 [DGB][DGB][DGB] .[DGB]2 [DGB] | [CEB][CEA][_C=DF] [=CE]3 | ccc cde | c2 c B3 | %12
w: ||||
 [Ec][Ec][Ec] [Fd][Ec][EB] | [FB][FA][DF] [DF] [CE]2 | %14
w: ||
[M:13/16] [A,DF][A,EG][A,FA][A,E][Ee]3/2[Fd] |[M:3/4] cE B [CA]3 |] %16
w: ||
V:2
 [A,,A,][A,,A,][A,,A,] [A,,A,]>[A,,A,][A,,A,] | [E,G,][E,G,][E,G,] [A,,A,] [A,,A,]2 | %2
 [A,,A,][C,A,][E,A,E][K:treble] [A,CE]>[A,_CF][K:bass][A,=CE] | [A,E]2 [C,A,] .[E,G,]3 | %4
 [A,,A,][A,,A,][A,,A,] [A,,A,]>[A,,A,][A,,A,] | [E,G,][E,G,][E,G,] [A,,A,] [A,,A,]2 | %6
 [D,A,D][D,A,D][D,A,D] [F,=D]-[F,B,D][F,B,D] | [E,A,E]2 [E,DE] A,,3 | %8
 E,E,E, z[K:treble] c[K:bass]E, | A,,A,,A,, A,,3 | z3 .[A,E]3 | [A,E]2 [A,E] [E,G,E]3 | %12
 [A,,A,][A,,A,][A,,A,] [A,,A,][A,,A,][C,A,] | [D,D][D,D][D,A,] [A,,A,] [A,,A,]2 | %14
[M:13/16] D,D,D,C,[C,A,]3/2[D,A,] |[M:3/4] [E,A,E][E,A,C] [E,G,D] [A,,E,]3 |] %16
V:3
 x6 | x6 | x3[K:treble] x2[K:bass] x | x6 | x6 | x6 | z3 .A,3 | x6 | z3 .E,3[K:treble][K:bass] | %9
 x6 | [A,E][A,E][A,E] z B,[A,CE] | x6 | x6 | x6 |[M:13/16] x13/2 |[M:3/4] x6 |] %16

